X: 37539
T: Slopes Of Sliabh Luachra, The
R: jig
M: 6/8
K: Adorian
ABA AGE|EDE G2G|ABA AGE|ABd efg|
ABA AGE|EDE GAB|cBA BAG|1 ABA A2G:|2 ABA A2d||
e2a aga|aba aga|e2g gfg|gag ged|
e2a aga|aba aga|efg edB|1 BAG A2d:|2 BAG A2G||

